tools/download-figma-icons/icons/outlined-medium/cold-water.svg

<svg width="24" height="24" viewBox="0 0 24 24" fill="none" xmlns="http://www.w3.org/2000/svg">
<path d="M13.4997 0.697923C13.3197 0.474694 13.0908 0.295737 12.8308 0.174819C12.5708 0.0539004 12.2864 -0.00575654 11.9997 0.000437435C11.7193 -6.32063e-05 11.4424 0.0623389 11.1893 0.183049C10.9362 0.303759 10.7134 0.479702 10.5373 0.697923C8.94729 2.67038 3.03741 10.8902 3.03741 15.0376C3.04728 17.4115 3.9947 19.6854 5.67332 21.364C7.35195 23.0427 9.62582 23.9901 11.9997 24C14.3801 24 16.6636 23.0569 18.3503 21.3772C20.0371 19.6975 20.9896 17.418 20.9995 15.0376C20.9995 10.8902 15.0522 2.67038 13.4997 0.697923ZM11.9997 22.5C10.0171 22.5 8.11517 21.715 6.70975 20.3166C5.30433 18.9182 4.5098 17.0202 4.49988 15.0376C4.49988 11.8802 9.19479 4.75534 11.7072 1.6429C11.741 1.5974 11.7851 1.56069 11.8361 1.53589C11.887 1.51109 11.9431 1.49891 11.9997 1.50041C12.0563 1.49891 12.1125 1.51109 12.1634 1.53589C12.2143 1.56069 12.2585 1.5974 12.2922 1.6429C14.8047 4.75534 19.4996 11.8802 19.4996 15.0376C19.4897 17.0202 18.6951 18.9182 17.2897 20.3166C15.8843 21.715 13.9823 22.5 11.9997 22.5Z" fill="black"/>
<path d="M15.8997 12.7502C15.8507 12.6643 15.7852 12.5889 15.707 12.5284C15.6287 12.4679 15.5392 12.4234 15.4437 12.3976C15.3482 12.3719 15.2486 12.3652 15.1505 12.3781C15.0524 12.391 14.9579 12.4231 14.8723 12.4727L12.7498 13.7027V11.2503C12.7498 11.0514 12.6708 10.8606 12.5301 10.7199C12.3895 10.5793 12.1987 10.5003 11.9998 10.5003C11.8009 10.5003 11.6101 10.5793 11.4695 10.7199C11.3288 10.8606 11.2498 11.0514 11.2498 11.2503V13.7027L9.12737 12.4727C9.04177 12.4231 8.94721 12.391 8.84913 12.3781C8.75105 12.3652 8.65138 12.3719 8.55588 12.3976C8.46038 12.4234 8.37092 12.4679 8.29266 12.5284C8.2144 12.5889 8.14889 12.6643 8.09989 12.7502C8.0503 12.8358 8.01814 12.9304 8.00525 13.0285C7.99236 13.1266 7.99901 13.2262 8.0248 13.3217C8.0506 13.4172 8.09503 13.5067 8.15554 13.5849C8.21605 13.6632 8.29145 13.7287 8.37739 13.7777L10.4998 15.0002L8.37739 16.2227C8.29145 16.2717 8.21605 16.3372 8.15554 16.4154C8.09503 16.4937 8.0506 16.5831 8.0248 16.6786C7.99901 16.7742 7.99236 16.8738 8.00525 16.9719C8.01814 17.07 8.0503 17.1645 8.09989 17.2501C8.16597 17.3646 8.26111 17.4595 8.3757 17.5254C8.49028 17.5912 8.62022 17.6257 8.75238 17.6251C8.88376 17.626 9.01307 17.5924 9.12737 17.5276L11.2498 16.2977V18.7501C11.2498 18.949 11.3288 19.1398 11.4695 19.2804C11.6101 19.4211 11.8009 19.5001 11.9998 19.5001C12.1987 19.5001 12.3895 19.4211 12.5301 19.2804C12.6708 19.1398 12.7498 18.949 12.7498 18.7501V16.2977L14.8723 17.5276C14.9866 17.5924 15.1159 17.626 15.2472 17.6251C15.3794 17.6257 15.5093 17.5912 15.6239 17.5254C15.7385 17.4595 15.8337 17.3646 15.8997 17.2501C15.9493 17.1645 15.9815 17.07 15.9944 16.9719C16.0073 16.8738 16.0006 16.7742 15.9748 16.6786C15.949 16.5831 15.9046 16.4937 15.8441 16.4154C15.7836 16.3372 15.7082 16.2717 15.6222 16.2227L13.4998 15.0002L15.6222 13.7777C15.7082 13.7287 15.7836 13.6632 15.8441 13.5849C15.9046 13.5067 15.949 13.4172 15.9748 13.3217C16.0006 13.2262 16.0073 13.1266 15.9944 13.0285C15.9815 12.9304 15.9493 12.8358 15.8997 12.7502Z" fill="black"/>
</svg>

<svg xmlns="http://www.w3.org/2000/svg" width="24" height="24" fill="none" viewBox="0 0 24 24"><path fill="currentColor" d="M13.5.698A1.88 1.88 0 0 0 12 0a1.88 1.88 0 0 0-1.463.698c-1.59 1.972-7.5 10.192-7.5 14.34A9 9 0 0 0 12 24a9 9 0 0 0 9-8.962C21 10.89 15.052 2.67 13.5.698M12 22.5a7.5 7.5 0 0 1-7.5-7.462c0-3.158 4.695-10.283 7.207-13.395A.35.35 0 0 1 12 1.5a.35.35 0 0 1 .292.143C14.805 4.755 19.5 11.88 19.5 15.038A7.5 7.5 0 0 1 12 22.5"/><path fill="currentColor" d="M15.9 12.75a.75.75 0 0 0-1.028-.277l-2.122 1.23V11.25a.75.75 0 1 0-1.5 0v2.453l-2.123-1.23a.75.75 0 0 0-1.122.555.75.75 0 0 0 .372.75L10.5 15l-2.123 1.223a.75.75 0 0 0 .375 1.402.75.75 0 0 0 .375-.097l2.123-1.23v2.452a.75.75 0 1 0 1.5 0v-2.452l2.122 1.23a.75.75 0 0 0 .375.097.75.75 0 0 0 .375-1.402L13.5 15l2.122-1.222a.75.75 0 0 0 .278-1.028"/></svg>
